X: 20299
T: John Blessing's
R: reel
M: 4/4
K: Dmajor
AFDF EFDF|AFAB e2dB|AFDF EFDF|AFAB d2dB|
AFDF EFDF|AFAB e2dB|AFDF EFDF|AFAB d2dB||
defd efdB|AFAB e2dB|defd efdB|AFAB d3A|
defd efdB|AFAB e2dB|df f2 af f2|afef d3B||

